X:1
T:Title
%%score { 1 | 2 }
L:1/8
Q:1/4=108
M:3/4
K:C
V:1 treble nm="Grand Piano"
V:2 bass 
V:1
 [EG]3 [EG] [CE][DF] | [EG]3 [EG] [FA][FB] | [Ec]3 [Gd] [Fc][FA] | [EG]4 [EG]2 | A3 A AB | %5
w: Chas.~H.~Gabriel * * *|||||
 [Gc]2 [FB]2 [Ec]2 | d3 d de | d4 G2 | [EG]3 [EG] [CE][DF] | [EG]3 [EG] [FA][FB] | %10
w: |||||
 [Ec]3 [Gd] [Fc][FA] | [EG]4 [Gc]2 | e4 d2 | c6 | [DB]6 | [Ec]6 | d3 d dd | d6 | %18
w: ||||||||
 [Ge]3 [Ge] [Ge][Ge] | [Gd]4 [FG]2 | [EG]3 [EG] [CE][DF] | [EG]3 [EG] [FA][FB] | %22
w: ||||
 [Ec]3 [Gd] [Ac][FA] | [EG]4 [Gc]2 | e4 d2 | c6 | [DFB]6 | [Ec]6 |] %28
w: ||||||
V:2
 [C,C]3 [C,C] [C,G,][C,G,] | [C,C]3 [C,C] [C,C][C,G,] | [C,G,]3 [E,G,] [F,A,][F,C] | %3
 [C,C]4 [C,C]2 | [F,CF]3 [F,CF] [F,CF][F,DF] | [E,C]2 [D,G,]2 [C,C]2 | %6
 [G,B,G]3 [G,B,G] [G,B,G][G,CG] | [G,B,G]4 [G,B,F]2 | [C,C]3 [C,C] [C,G,][C,G,] | %9
 [C,C]3 [C,C] [C,C][C,G,] | [C,G,]3 [E,G,] [F,A,][F,C] | [C,C]4 [E,C]2 | [G,CG]4 [G,B,F]2 | %13
 [G,CE]6 | [G,,G,]6 | [C,G,]6 | [G,B,G]3 [G,B,G] [G,B,G][G,B,G] | [G,B,G]6 | %18
 [C,C]3 [C,C] [C,C][C,C] | [G,B,]4 [G,B,]2 | [C,C]3 [C,C] [C,G,][C,G,] | [C,C]3 [C,C] [C,C][C,G,] | %22
 [C,G,]3 [E,G,] [F,A,][F,C] | [C,C]4 [E,B,]2 | [G,CG]4 [G,B,G]2 | [G,CE]6 | [G,,G,]6 | [C,G,]6 |] %28

